packages/crs-framework/resources/svg/calendar.svg

<svg width="24" height="24" xmlns="http://www.w3.org/2000/svg"><path d="M16 3v1H8V3c0-.55-.45-1-1-1s-1 .45-1 1v1H5c-1.11 0-1.99.9-1.99 2L3 20a2 2 0 0 0 2 2h14c1.1 0 2-.9 2-2V6c0-1.1-.9-2-2-2h-1V3c0-.55-.45-1-1-1s-1 .45-1 1Zm2 17H6c-.55 0-1-.45-1-1V9h14v10c0 .55-.45 1-1 1Z"/></svg>

<svg width="24" height="24" viewBox="0 0 24 24" fill="none" xmlns="http://www.w3.org/2000/svg">
<g clip-path="url(#clip0_161_1569)">
<path d="M16 3V4H8V3C8 2.45 7.55 2 7 2C6.45 2 6 2.45 6 3V4H5C3.89 4 3.01 4.9 3.01 6L3 20C3 21.1 3.89 22 5 22H19C20.1 22 21 21.1 21 20V6C21 4.9 20.1 4 19 4H18V3C18 2.45 17.55 2 17 2C16.45 2 16 2.45 16 3ZM18 20H6C5.45 20 5 19.55 5 19V9H19V19C19 19.55 18.55 20 18 20Z" fill="#272C37"/>
</g>
<defs>
<clipPath id="clip0_161_1569">
<rect width="24" height="24" fill="white"/>
</clipPath>
</defs>
</svg>
